power-plug-battery.svg

<svg fill="currentColor" viewBox="0 0 24 24"><path d="M12 10c0-.65-.43-1.3-1-1.68-.3-.2-.65-.32-1-.32V4H8v4H4V4H2v4c-1 0-2 1-2 2v5.5L3.5 19v3h5v-3l3.5-3.5zm.33-6c-.11 0-.22 0-.33.04v2.55c.3.18.56.41.79.62C13.44 7.87 14 8.85 14 10v6.33l-3 3v1.34c0 .73.6 1.33 1.33 1.33h9.34c.33 0 .69-.14.94-.39s.39-.61.39-.94V5.33C23 4.6 22.4 4 21.67 4H20V2h-6v2z"/></svg>

<svg  viewBox="0 0 24 24" fill="currentColor"><path  d="M12 10C12 9.35 11.57 8.7 11 8.32C10.7 8.12 10.35 8 10 8V4H8V8H4V4H2V8C1 8 0 9 0 10V15.5L3.5 19V22H8.5V19L12 15.5V10M12.33 4C12.22 4 12.11 4 12 4.04V6.59C12.3 6.77 12.56 7 12.79 7.21C13.44 7.87 14 8.85 14 10V16.33L11 19.33V20.67C11 21.4 11.6 22 12.33 22H21.67C22 22 22.36 21.86 22.61 21.61C22.86 21.36 23 21 23 20.67V5.33C23 4.6 22.4 4 21.67 4H20V2H14V4H12.33Z"/></svg>
